!!!OTL: ES KANN UNS NICHTS SCHOENRES ERFREUEN
!!!ARE: Europa, Mitteleuropa, Deutschland
!!!SCT: Z0108
!!!YEM: Copyright 1995, estate of Helmut Schaffrath.
**kern
*ICvox
*Ivox
*M6/8
*k[f#c#g#]
*A:
{8e
=1
8a
8e
8a
8cc#
8a
8cc#
=2
8.ee
16ff#
16ee
16dd
4cc#
8r}
=3
{4.cc#
8dd
8cc#
8dd
=4
4ee
24ff#
24ee
24dd
4cc#}
{16cc#
16dd
=5
8ee
8ff#
8ee
8dd
8cc#
8dd
=6
4cc#
4.r}
{8ee
=7
8cc#
8dd
8ee
8cc#
8dd
8ee
=8
4.cc#
4.b}
=9
{4.cc#
8dd
8cc#
8dd
=10
4ee
8dd
4cc#}
{16cc#
16dd
=11
8ee
8ff#
8ee
8dd
8cc#
8dd
=12
4cc#
4.r}
{8ee
=13
8cc#
8dd
8ee
8cc#
8dd
8ee
=14
4.cc#
4.b}
=15
{4.cc#
8dd
8cc#
8dd
=16
4ee
8dd
4cc#}
{16cc#
16dd
=17
8ee
8ff#
8ee
8dd
8cc#
8dd
=18
4cc#
4.r}
==
!!!AGN: Sagen - Lied, Romanze, Tod
!! "Alte Romanze"
!!!ONB: ESAC (Essen Associative Code) Database: ZUCCAL
!!!AMT: compound duple
!!!AIN: vox
!!!EED: Helmut Schaffrath
!!!EEV: 1.0
*-
